!!!ONB: MCCC : IJH0459_03 : Extracted Monophonic Melody
!!!COM: Haydn, Joseph
!!!OPR: String Quartet in G major
!!!OMV: 3
!!!SCT: Hob.III:4 ; Op.1 No.4
!!!ODT: 1757///
**kern
*thru
*k[]
*C:
*clefF
*M4/4
16ccc
16gg
=1
8gg
8gg
8gg
16aa
32gg
32ff
4ff
8ee
16ff
32ee
32dd
=2
16.cc
32ee
16.gg
32ccc
4ff
4ee
4r
=3
8r
8cc
8cc
8cc
16.b
64cc
64dd
8cc
4r
=4
16.dd
64ee
64ff
8ee
4r
4gg
24ccc
24bb
24aa
24gg
24ff
24ee
=5
24dd
24ee
24ff
4ff
16ee
16dd
8ee
8gg
32ccc
32gg
32eee
32ccc
16.ggg
64fff
64eee
=6
8eee
8ddd
4r
2r
=7
32gg
32ff#
32gg
32aa
8bb
4r
32ccc
32bb
32aa
32bb
8aa
4r
=8
32ddd
32bb
32ddd
32bb
8ddd
4r
16ddd
16ee
8.ee
32ccc
32bb
32ccc
32bb
32ccc
32bb
=9
16ccc
16dd
8.dd
32bb
32aa#
32bb
32aa#
32bb
32aa#
16bb
16cc
8.cc
32aa
32gg#
32aa
32ff#
32dd
32cc
=10
16b
16gg
16ff#
16ee
16dd
16cc
16b
16a
16g
16cc
16b
16ee
16dd
16gg
16ff#
16ccc
=11
16bb
16eee
16ddd
16ggg
16ggg
8ggg
16ggg
2ggg[
=12
16ggg]
16ddd
32ccc
32bb
32aa
32gg
4aa
32bb
32ddd
32ggg
32ddd
32ggg
32ddd
32bb
32gg
4aa
=13
8gg
4g
8f#
4g
8r
16gg
16dd
=14
8dd
8dd
8dd
16ee
32dd
32cc
4cc
8b
16cc
32b
32a
=15
24g
24b
24dd
24gg
24bb
24ddd
8ddd
8ccc
4bb
4r
=16
8r
4gg
16gg
32ff
32ee
4cc
24bb-
24aa
24gg
24ddd
24ccc
24bb-
=17
2ccc
2ccc[
=18
2ccc]
24ccc
24fff
24eee
24ddd
24ccc
24bb-
8aa
8gg
=19
4ff
4r
2r
=20
32aa
32gg
32aa
32bb-
8ccc
4r
32aa
32gg
32aa
32bb-
8ccc
4r
=21
16ccc
16ee-
4ee-
16dd
16cc
32b-
32a
32b-
32cc
16.dd
32g
8.a
32b-
32cc
=22
32b-
32a
32g
32a
8g
4gg
2r
=23
32gg
32ff#
32gg
32aa
8bb-
4r
32gg
32ff#
32gg
32aa
8bb-
4r
=24
16bb-
16dd
4dd
16cc
16b-
32a
32g
32a
32b-
16.cc
32f
8.g
32a
32b-
=25
32a
32g
32f
32g
8f
4aa
2r
=26
8aa
4aa
16aa
16ccc
16ccc
16gg
4gg
32ff
32ee
32dd
32cc
=27
8ff
4ff
24aa
24gg
24ff
24ee
24ff
24ee
24gg
24aa
24gg
24ccc
24bb
24aa
24gg
24ff
24ee
=28
8ee
8dd
4r
4.r
16ccc
16gg
=29
8gg
4gg
16aa
32gg
32ff
8ee
4ee
16ff
32ee
32dd
=30
8cc
4cc
16aa
32gg
32ff
8ee
4ee
16ff
32ee
32dd
=31
16.cc
32ee
16.gg
32ccc
4ff
4ee
4r
=32
8r
8cc
8cc
8cc
16.b
64cc
64dd
8cc
4r
=33
16.dd
64ee
64ff
8ee
4r
4gg
24ccc
24bb
24aa
24gg
24ff
24ee
=34
24dd
24ee
24ff
4ff
16ee
16dd
8ee
8gg
32ccc
32gg
32eee
32ccc
16.ggg
64fff
64eee
=35
8eee
8ddd
4r
2r
=36
32cc
32b
32cc
32dd
8ee
4r
32ff
32ee
32dd
32ee
8dd
4r
=37
32gg
32ee
32gg
32ee
8gg
4r
16gg
16a
8.a
32ff
32ee
32ff
32ee
32ff
32ee
=38
16ff
16g
8.g
32ee
32dd#
32ee
32dd#
32ee
32dd#
16ee
16f
8.f
32dd
32cc#
32dd
32b
32g
32f
=39
16e
16cc
16b
16a
16g
16f
16e
16d
16c
16f
16e
16a
16g
16cc
16b
16ff
=40
16ee
16aa
16gg
16ccc
16ccc
8ccc
16ccc
2ccc[
=41
16ccc]
16gg
32ff
32ee
32dd
32cc
4dd
32ee
32gg
32ccc
32gg
32ccc
32gg
32ee
32cc
4dd
=42
8cc
4cc
8b
4cc
8r
8r
==
*-
